X:1
T:St. Catherine (Walton), 88.88.88
T:St. Catherine (Walton), 88.88.88
T:Arr. by James George Walton, 1864
T:Public Domain Courtesy of the Cyber Hymnal™
C:Arr. by James George Walton, 1864
Z:Public Domain
Z:Courtesy of the Cyber Hymnal™
%%score ( 1 2 ) ( 3 4 )
L:1/8
M:3/4
K:F
V:1 treble 
V:2 treble 
V:3 bass 
V:4 bass 
V:1
 [CA]2 [CG]2 [CF]2 | (F2 E2) [CF]2 | (G2 D2) [CE]2 | [CF]6 | [DF]2 [CE]2 [B,D]2 | [A,C]4 [CF]2 | %6
 (F2 E2) [_B,F]2 | [CG]6 | [CA]2 [CG]2 [CF]2 | [CF]2 [B,E]2 [A,F]2 | (G2 D2) [B,E]2 | [CF]6 | %12
 [DF]2 [CE]2 [B,D]2 | [A,C]4 [CA]2 | (G2 A2) [_B,G]2 | [A,F]6 | [FB]2 [FB]2 [FB]2 | [FA]4 [FA]2 | %18
 [EG]4 [EG]2 | [FA]6 | [A,A]2 [B,G]2 [CF]2 | [B,D]4 [A,F]2 | [CG]4 [B,G]2 | [A,F]6 |] %24
V:2
 x6 | C4 x2 | D4 x2 | x6 | x6 | x6 | =B,4 x2 | x6 | x6 | x6 | D4 x2 | x6 | x6 | x6 | =B,4 x2 | x6 | %16
 x6 | x6 | x6 | x6 | x6 | x6 | x6 | x6 |] %24
V:3
 [F,C]2 [F,B,]2 [F,A,]2 | [F,A,]2 [G,B,]2 [F,A,]2 | [B,,G,]4 [C,B,]2 | [F,,A,]6 | %4
 [B,,F,]2 [B,,F,]2 [D,F,]2 | F,4 [F,,A,]2 | [G,,D,]4 [G,,G,]2 | [C,E,]6 | [F,C]2 [F,B,]2 [F,A,]2 | %9
 (A,2 G,2) [D,F,]2 | [B,,B,]4 [C,G,]2 | [F,,A,]6 | [B,,F,]2 [B,,F,]2 [D,F,]2 | F,4 [F,,F,]2 | %14
 [G,,F,]4 [C,E,]2 | F,6 | [B,,D]2 [B,,D]2 [B,,D]2 | [F,C]4 [F,C]2 | [C,C]4 [C,C]2 | [F,C]6 | %20
 [F,,F,]2 [G,,E,]2 [A,,F,]2 | [B,,F,]4 [D,F,]2 | [C,F,]4 [C,E,]2 | [F,,F,]6 |] %24
V:4
 x6 | x6 | x6 | x6 | x6 | F,4 x2 | x6 | x6 | x6 | C,4 x2 | x6 | x6 | x6 | F,4 x2 | x6 | F,6 | x6 | %17
 x6 | x6 | x6 | x6 | x6 | x6 | x6 |] %24

